X:1
T:MfCH 05.09
M:4/4
L:1/8
K:G
Bg (3fed egba- | a4 z4 | bc'd'e' f'2d'b- | b4 zabd- | 
d4 eB-B2 | z2dA- A4 | Gcfb c'abc' | ad'-d'2 z4 | 
zgec da-a2 | z4 dafa | z4 faz2 | c'd'bg egbd' | 
c'e'f'e'- e'4 | bd'e'd'- d'4 | ac'd'b aebg- | g4 z4 :|]
